X:715
T:
S:Efter sjöman Joh. Johansson Allmunde i Burs m. fl.
O:Gotland, Burs
R:långdans
M:2/4
L:1/8
K:D
(df) (df)|(eg) (eg)|(ce) (ce)|(df) a2|(df) (df)|(eg) (eg)|(fa) (^gb)|a2 z2:|
|:AA BB|cc d2|(ce) (ag)|(fd) A2|(df) (df)|(eg) (eg)|(ce) (ce)|d2 z2:|

